X:1
T:I’m Going Home at Last
T:I’m Going Home at Last
T:Adam Geibel
T:John Oatman, Jr., 1898
T:Public Domain Courtesy of the Cyber Hymnal™
T:Public Domain Courtesy of the Cyber Hymnal™
C:Adam Geibel
Z:Public Domain
Z:Courtesy of the Cyber Hymnal™
%%score ( 1 2 ) ( 3 4 )
L:1/8
Q:1/4=90
M:4/4
K:F
V:1 treble 
V:2 treble 
V:3 bass 
V:4 bass 
V:1
 [CF]>[CG] | [FA]>[Fc] [Fc]>[Fd] [Fc]>[FA] [CA]>[CG] | [DF]>[DG] [DF]>[B,D] [A,C]2 [CF]>[CG] | %3
w: 1.~When I|see life’s gold- en sun- set light- ing|up the ro- sy west, When the|
w: 2.~Tho’ the|road at times was wea- ry, o- ver|which my feet have trod, Tho’ thro’|
w: 3.~When I|pass down thro’ the val- ley and the|sha- dow of the dead, To my|
 [FA]>[Fc] [Fc]>[Fd] [Fc]>[FA] [CG]>[CF] | [EG]6 [CF]>[CG] | %5
w: sha- dows back- ward o’er my way are|cast; I shall|
w: ma- ny tri- bu- la- tions I have|passed; Yet I|
w: bless- èd Sav- ior’s hand I will hold|fast; He has|
 [FA]>[Fc] [Fc]>[Fd] [Fc]>[FA] [CA]>[CG] | [DF]>[DG] [DF]>[B,D] [A,C]2 [FB]2 | %7
w: look up- on that mo- ment as the|one su- preme- ly blest, I’m|
w: soon will reach my man- sion in the|ci- ty of our God, I’m|
w: prom- ised to go with me, so my|soul will have no dread, I’m|
 [FA] [FA]3 [EG]3 [EG] | [CF]6 ||"^Refrain" [Fc]2 | [Fd] [Fd]3 [Ff]3 [Fd] | c6 [FA]2 | %12
w: go- ing home at|last.||||
w: go- ing home at|last.|I’m|go- ing home at|last, I’m|
w: go- ing home at|last.||||
 [EG] [EG]3 [Ge]3 [Fd] | !fermata!c6 !fermata!F>[FG] | [FA]>[Fc] [Fc]>[Fd] [Fc]>[FA] [CA]>[CG] | %15
w: |||
w: go- ing home at|last; When my|work on earth is end- ed and my|
w: |||
 [DF]>[DG] [DF]>[B,D] [A,C]2 [FB]2 | [FA] [FA]3 [EG]3 [EG] | [CF]6 |] %18
w: |||
w: race be- low is run, I’m|go- ing home at|last.|
w: |||
V:2
 x2 | x8 | x8 | x8 | x8 | x8 | x8 | x8 | x6 || x2 | x8 | (F2 E2 F2) x2 | x8 | (E2 F2 G2) F3/2 x/ | %14
 x8 | x8 | x8 | x6 |] %18
V:3
 [F,A,]>[F,B,] | [F,C]>[F,A,] [F,A,]>[F,B,] [F,A,]>[F,C] [F,C]>[F,A,] | %2
 [B,,B,]>[B,,B,] [B,,B,]>[D,F,] F,2 [F,A,]>[F,B,] | %3
 [F,C]>[F,A,] [F,A,]>[F,B,] [F,A,]>[F,C] [F,B,]>[F,A,] | [C,C]6 [F,A,]>[F,B,] | %5
 [F,C]>[F,A,] [F,A,]>[F,B,] [F,A,]>[F,C] [F,C]>[F,A,] | %6
 [B,,B,]>[B,,B,] [B,,B,]>[D,F,] F,2 [B,,D]2 | [C,C] [C,C]3 [C,B,]3 [C,B,] | [F,A,]6 || [F,A,]2 | %10
 [B,,B,] [B,,B,]3 [B,D]3 B, | [A,C]2 [G,B,]2 [F,A,]2 [F,C]2 | [G,C] [G,C]3 [G,=B,]3 [G,B,] | %13
 [C,C]2 [C,A,]2 !fermata![C,B,]2 [F,A,]>[F,B,] | %14
 [F,C]>[F,A,] [F,A,]>[F,B,] [F,A,]>[F,C] [F,C]>[F,A,] | %15
 [B,,B,]>[B,,B,] [B,,B,]>[D,F,] F,2 [B,,D]2 | [C,C] [C,C]3 [C,B,]3 [C,B,] | [F,A,]6 |] %18
V:4
 x2 | x8 | x4 F,2 x2 | x8 | x8 | x8 | x4 F,2 x2 | x8 | x6 || x2 | x7 B, | x8 | x8 | x8 | x8 | %15
 x4 F,2 x2 | x8 | x6 |] %18

